icons/src/scalable/default/hicolor/org.gnome.seahorse.Application.svg

<?xml version="1.0" encoding="UTF-8" standalone="no"?>
<!-- Generator: flash2svg, http://dissentgraphics.com/tools/flash2svg -->

<svg
   xmlns:dc="http://purl.org/dc/elements/1.1/"
   xmlns:cc="http://creativecommons.org/ns#"
   xmlns:rdf="http://www.w3.org/1999/02/22-rdf-syntax-ns#"
   xmlns:svg="http://www.w3.org/2000/svg"
   xmlns="http://www.w3.org/2000/svg"
   xmlns:xlink="http://www.w3.org/1999/xlink"
   xmlns:sodipodi="http://sodipodi.sourceforge.net/DTD/sodipodi-0.dtd"
   xmlns:inkscape="http://www.inkscape.org/namespaces/inkscape"
   id="Gimp"
   image-rendering="optimizeSpeed"
   version="1.1"
   style="background-color:#ffffff"
   x="0px"
   y="0px"
   width="1024px"
   height="1024px"
   viewBox="0 0 1024 1024"
   enable-background="new 0 0 1024 1024"
   sodipodi:docname="org.gnome.seahorse.Application.svg"
   inkscape:version="0.92.4 (5da689c313, 2019-01-14)"
   inkscape:export-filename="/home/unc/Desktop/XONE/1Pass.png"
   inkscape:export-xdpi="24"
   inkscape:export-ydpi="24">
  <metadata
     id="metadata58">
    <rdf:RDF>
      <cc:Work
         rdf:about="">
        <dc:format>image/svg+xml</dc:format>
        <dc:type
           rdf:resource="http://purl.org/dc/dcmitype/StillImage" />
        <dc:title />
      </cc:Work>
    </rdf:RDF>
  </metadata>
  <sodipodi:namedview
     pagecolor="#ffffff"
     bordercolor="#666666"
     borderopacity="1"
     objecttolerance="10"
     gridtolerance="10"
     guidetolerance="10"
     inkscape:pageopacity="0"
     inkscape:pageshadow="2"
     inkscape:window-width="1920"
     inkscape:window-height="955"
     id="namedview56"
     showgrid="true"
     inkscape:zoom="0.70117188"
     inkscape:cx="512"
     inkscape:cy="508.43454"
     inkscape:window-x="0"
     inkscape:window-y="25"
     inkscape:window-maximized="1"
     inkscape:current-layer="Gimp"
     inkscape:pagecheckerboard="true">
    <inkscape:grid
       type="xygrid"
       id="grid868" />
  </sodipodi:namedview>
  <defs
     transform="matrix(1 0 0 1 0 0) "
     id="defs2">
    <linearGradient
       inkscape:collect="always"
       id="linearGradient856">
      <stop
         style="stop-color:#1775d1;stop-opacity:0.7"
         offset="0"
         id="stop851" />
      <stop
         style="stop-color:#1775d1;stop-opacity:1"
         offset="1"
         id="stop853" />
    </linearGradient>
    <linearGradient
       inkscape:collect="always"
       id="linearGradient855">
      <stop
         style="stop-color:#333333;stop-opacity:1;"
         offset="0"
         id="stop850" />
      <stop
         style="stop-color:#000000;stop-opacity:1"
         offset="1"
         id="stop852" />
    </linearGradient>
    <linearGradient
       inkscape:collect="always"
       id="linearGradient861">
      <stop
         style="stop-color:#b0bdc5;stop-opacity:1;"
         offset="0"
         id="stop857" />
      <stop
         style="stop-color:#b0bdc5;stop-opacity:0;"
         offset="1"
         id="stop859" />
    </linearGradient>
    <linearGradient
       inkscape:collect="always"
       id="linearGradient841">
      <stop
         style="stop-color:#ebeef0;stop-opacity:1;"
         offset="0"
         id="stop837" />
      <stop
         style="stop-color:#cfd7dc;stop-opacity:1"
         offset="1"
         id="stop839" />
    </linearGradient>
    <linearGradient
       gradientTransform="translate(270.3508)"
       gradientUnits="userSpaceOnUse"
       id="b"
       x1="122.16791"
       y1="-9.6918192"
       x2="122.16791"
       y2="254.88385">
      <stop
         style="stop-color:#6bc3e9;stop-opacity:1"
         stop-color="#37aee2"
         offset="0"
         id="stop952" />
      <stop
         style="stop-color:#187ca6;stop-opacity:1"
         stop-color="#1e96c8"
         offset="1"
         id="stop954" />
    </linearGradient>
    <linearGradient
       inkscape:collect="always"
       xlink:href="#linearGradient940"
       id="linearGradient873"
       x1="520.03137"
       y1="2.0078433"
       x2="520.03137"
       y2="1026.0078"
       gradientUnits="userSpaceOnUse"
       gradientTransform="matrix(0.95703125,0,0,0.95703125,22,22)" />
    <linearGradient
       y2="254.88385"
       x2="122.16791"
       y1="-9.6918192"
       x1="122.16791"
       id="b-3"
       gradientUnits="userSpaceOnUse"
       gradientTransform="translate(270.3508)">
      <stop
         id="stop842"
         offset="0"
         stop-color="#37aee2"
         style="stop-color:#6bc3e9;stop-opacity:1" />
      <stop
         id="stop844"
         offset="1"
         stop-color="#1e96c8"
         style="stop-color:#187ca6;stop-opacity:1" />
    </linearGradient>
    <linearGradient
       y2="174.70814"
       x2="146.52715"
       y1="131.02764"
       x1="123.64119"
       id="w"
       gradientTransform="matrix(4.2811896,0,0,3.5908088,41,42.000008)"
       gradientUnits="userSpaceOnUse">
      <stop
         id="stop847"
         offset="0"
         stop-color="#eff7fc" />
      <stop
         id="stop849"
         offset="1"
         stop-color="#fff" />
    </linearGradient>
    <linearGradient
       inkscape:collect="always"
       xlink:href="#linearGradient841"
       id="linearGradient854"
       x1="520"
       y1="224"
       x2="520"
       y2="804"
       gradientUnits="userSpaceOnUse"
       gradientTransform="matrix(1.1408744,0,0,1.1408744,-69.569791,-72.191084)" />
    <linearGradient
       id="linearGradient4657">
      <stop
         id="stop4653"
         offset="0"
         style="stop-color:#ffffff;stop-opacity:1" />
      <stop
         id="stop4655"
         offset="1"
         style="stop-color:#ffffff;stop-opacity:0;" />
    </linearGradient>
    <linearGradient
       inkscape:collect="always"
       xlink:href="#linearGradient861"
       id="linearGradient863"
       x1="515.57489"
       y1="352.39072"
       x2="520"
       y2="784"
       gradientUnits="userSpaceOnUse" />
    <radialGradient
       inkscape:collect="always"
       xlink:href="#linearGradient855"
       id="radialGradient859"
       cx="515.57489"
       cy="513.42511"
       fx="515.57489"
       fy="513.42511"
       r="64.654884"
       gradientTransform="matrix(3.471125,0,0,8.4978132,-1274.05,-3849.5655)"
       gradientUnits="userSpaceOnUse" />
    <linearGradient
       inkscape:collect="always"
       xlink:href="#linearGradient856"
       id="linearGradient858"
       x1="500"
       y1="64"
       x2="512.89142"
       y2="972.04224"
       gradientUnits="userSpaceOnUse" />
    <linearGradient
       id="linearGradient940">
      <stop
         id="stop936"
         offset="0"
         style="stop-color:#f6f7f7;stop-opacity:1" />
      <stop
         id="stop938"
         offset="1"
         style="stop-color:#dce7f0;stop-opacity:1" />
    </linearGradient>
    <filter
       style="color-interpolation-filters:sRGB"
       inkscape:label="Drop Shadow"
       id="filter987">
      <feFlood
         flood-opacity="0.294118"
         flood-color="rgb(0,0,0)"
         result="flood"
         id="feFlood977" />
      <feComposite
         in="flood"
         in2="SourceGraphic"
         operator="in"
         result="composite1"
         id="feComposite979" />
      <feGaussianBlur
         in="composite1"
         stdDeviation="3"
         result="blur"
         id="feGaussianBlur981" />
      <feOffset
         dx="0"
         dy="3"
         result="offset"
         id="feOffset983" />
      <feComposite
         in="SourceGraphic"
         in2="offset"
         operator="over"
         result="composite2"
         id="feComposite985" />
    </filter>
  </defs>
  <path
     id="path"
     d="m 966.34006,324.4089 q -8.92796,-21.64513 -20.13987,-42.40784 c -4.20442,-7.83792 -8.66839,-15.62395 -13.39192,-23.25424 -20.29556,-32.9089 -45.05509,-64.00106 -74.27861,-93.22458 C 762.86546,69.858051 647.32097,22 512,22 376.67903,22 261.18644,69.858051 165.52224,165.52224 69.858051,261.18644 22,376.67903 22,512 22,647.32097 69.858051,762.86546 165.52224,858.52966 261.18644,954.19386 376.67903,1002 512,1002 647.32097,1002 762.86546,954.19386 858.52966,858.52966 911.21504,805.79237 949.41841,747.0339 973.0879,682.30614 992.34537,629.51695 1002,572.78284 1002,512 c 0,-46.61229 -5.65787,-90.88877 -17.02539,-132.82945 -1.29773,-4.72351 -2.64725,-9.44704 -4.04874,-14.11864 -4.25638,-13.80721 -9.13561,-27.35487 -14.58581,-40.64301 z"
     style="fill:url(#linearGradient873);fill-opacity:1.0;stroke-width:1.03813565"
     inkscape:connector-curvature="0" />
  <path
     inkscape:connector-curvature="0"
     style="fill:url(#linearGradient858);fill-opacity:1;fill-rule:nonzero;stroke:none;stroke-width:2.68390703"
     d="m 515.57487,929.43071 c -229.39019,0 -416.005591,-186.61541 -416.005591,-416.00559 0,-229.39019 186.615401,-416.005585 416.005591,-416.005585 229.39018,0 416.00561,186.615395 416.00561,416.005585 0,229.39018 -186.61543,416.00559 -416.00561,416.00559 z m 0,0"
     id="path847" />
  <path
     inkscape:connector-curvature="0"
     style="fill:url(#linearGradient854);fill-opacity:1;fill-rule:nonzero;stroke:none;stroke-width:2.68390703"
     d="m 515.57487,191.35628 c -177.87176,0 -322.06884,144.19709 -322.06884,322.06884 0,177.87176 144.19708,322.06884 322.06884,322.06884 177.87175,0 322.06884,-144.19708 322.06884,-322.06884 0,-177.87175 -144.1971,-322.06884 -322.06884,-322.06884 z m 0,0"
     id="path851" />
  <path
     inkscape:connector-curvature="0"
     style="fill:url(#linearGradient863);fill-opacity:1;fill-rule:nonzero;stroke:none;stroke-width:2.68390703"
     d="m 515.57487,352.39071 c -88.93588,0 -161.03442,72.09852 -161.03442,161.03441 0,88.93587 72.09854,161.03442 161.03442,161.03442 88.93587,0 161.03441,-72.09855 161.03441,-161.03442 0,-88.93589 -72.09854,-161.03441 -161.03441,-161.03441 z m 0,0"
     id="path853" />
  <path
     inkscape:connector-curvature="0"
     style="fill:url(#radialGradient859);fill-opacity:1;fill-rule:nonzero;stroke:none;stroke-width:2.68390703"
     d="M 450.91998,744 V 499.57573 l 44.66188,-44.66189 -44.66188,-44.68285 V 282.85025 H 580.22975 V 527.2745 l -44.66187,44.68286 44.66187,44.6619 V 744 Z m 0,0"
     id="path855" />
</svg>

<svg enable-background="new 0 0 1024 1024" image-rendering="optimizeSpeed" style="background-color:#ffffff" version="1.1" viewBox="0 0 1024 1024" xmlns="http://www.w3.org/2000/svg" xmlns:xlink="http://www.w3.org/1999/xlink">
 <defs>
  <linearGradient id="b" x1="520.03" x2="520.03" y1="2.0078" y2="1026" gradientTransform="matrix(.95703 0 0 .95703 22 22)" gradientUnits="userSpaceOnUse">
   <stop stop-color="#f6f7f7" offset="0"/>
   <stop stop-color="#dce7f0" offset="1"/>
  </linearGradient>
  <linearGradient id="e" x1="520" x2="520" y1="224" y2="804" gradientTransform="matrix(1.1409 0 0 1.1409 -69.57 -72.191)" gradientUnits="userSpaceOnUse">
   <stop stop-color="#ebeef0" offset="0"/>
   <stop stop-color="#cfd7dc" offset="1"/>
  </linearGradient>
  <linearGradient id="c" x1="515.57" x2="520" y1="352.39" y2="784" gradientUnits="userSpaceOnUse">
   <stop stop-color="#b0bdc5" offset="0"/>
   <stop stop-color="#b0bdc5" stop-opacity="0" offset="1"/>
  </linearGradient>
  <radialGradient id="a" cx="515.57" cy="513.43" r="64.655" gradientTransform="matrix(3.4711 0 0 8.4978 -1274 -3849.6)" gradientUnits="userSpaceOnUse">
   <stop stop-color="#333" offset="0"/>
   <stop offset="1"/>
  </radialGradient>
  <linearGradient id="d" x1="500" x2="512.89" y1="64" y2="972.04" gradientUnits="userSpaceOnUse">
   <stop stop-color="#1775d1" stop-opacity=".7" offset="0"/>
   <stop stop-color="#1775d1" offset="1"/>
  </linearGradient>
 </defs>
 <path d="m966.34 324.41q-8.928-21.645-20.14-42.408c-4.2044-7.8379-8.6684-15.624-13.392-23.254-20.296-32.909-45.055-64.001-74.279-93.225-95.664-95.664-211.21-143.52-346.53-143.52s-250.81 47.858-346.48 143.52c-95.664 95.664-143.52 211.16-143.52 346.48s47.858 250.87 143.52 346.53c95.664 95.664 211.16 143.47 346.48 143.47s250.87-47.806 346.53-143.47c52.685-52.737 90.889-111.5 114.56-176.22 19.257-52.789 28.912-109.52 28.912-170.31 0-46.612-5.6579-90.889-17.025-132.83-1.2977-4.7235-2.6472-9.447-4.0487-14.119-4.2564-13.807-9.1356-27.355-14.586-40.643z" fill="url(#b)" stroke-width="1.0381"/>
 <g>
  <path d="m515.57 929.43c-229.39 0-416.01-186.62-416.01-416.01 0-229.39 186.62-416.01 416.01-416.01 229.39 0 416.01 186.62 416.01 416.01 0 229.39-186.62 416.01-416.01 416.01z" fill="url(#d)"/>
  <path d="m515.57 191.36c-177.87 0-322.07 144.2-322.07 322.07 0 177.87 144.2 322.07 322.07 322.07 177.87 0 322.07-144.2 322.07-322.07 0-177.87-144.2-322.07-322.07-322.07z" fill="url(#e)"/>
  <path d="m515.57 352.39c-88.936 0-161.03 72.099-161.03 161.03 0 88.936 72.099 161.03 161.03 161.03 88.936 0 161.03-72.099 161.03-161.03 0-88.936-72.099-161.03-161.03-161.03z" fill="url(#c)"/>
  <path d="m450.92 744v-244.42l44.662-44.662-44.662-44.683v-127.38h129.31v244.42l-44.662 44.683 44.662 44.662v127.38z" fill="url(#a)"/>
 </g>
</svg>
